X: 42561
T: When Sick Is It Tea That You Want?
R: jig
M: 6/8
K: Dmajor
F/G/|:Add dcB|{c}A^GB {c}AF=G|AdB cde|fdB {c}BAF|
Add fdB|{c}A^GB {c}AF=G|AdB cde|1 fdc d3:|2 fdc (4d>efg||
|:{b}afd dcd|{c}BGF (4G>fga|bge e^de|cAA {c}AFG|
Add {a}fdB|{c}AFB {AB}AFG|A3 cde|1 fdc (4d>efg:|2 fdc d3||

